X:1
T:Trust On!
T:Trust On!
T:George Coles Stebbins, 1881
T:Anonymous
T:Public Domain Courtesy of the Cyber Hymnal™
C:George Coles Stebbins, 1881
Z:Public Domain
Z:Courtesy of the Cyber Hymnal™
%%score ( 1 2 ) ( 3 4 )
L:1/8
Q:1/4=100
M:6/8
K:F
V:1 treble 
V:2 treble 
V:3 bass 
V:4 bass 
V:1
 [Fc] | [Fc]2 [FA] [FB]2 [Fd] | [Fc]3 [FA]2 [EG] | F2 [CE] [CF]2 [FA] | [EG]3- [EG]2 [Ec] | %5
w: 1.~Trust|on! trust on, be-|liev- er! Tho’|long the con- flict|be, * Thou|
w: 2.~Trust|on! trust on; thy|fail- ings May|bow thee to the|dust, * But|
w: 3.~Trust|on! the dan- ger|pres- ses; Temp-|ta- tion strong is|near, * Yet|
w: 4.~O|Christ is strong to|save us, He|is a faith- ful|friend; * Trust|
 [Fc]2 [FA] [FB]2 [Fd] | [Fc]3 [FA]2 F | [DG]2 [GB] [FA]2 [EG] | F3- F2 ||"^Refrain" c | %10
w: yet shall prove vic-|tor- ious; Thy|God shall fight for|thee. *||
w: in thy deep- est|sor- row, O|give not up thy|trust. *|Trust|
w: o’er life’s dan- gerous|ra- pids, He|shall thy pass- age|steer. *||
w: on! trust on! be-|liev- er, O|trust Him to the|end. *||
 z2 F [Fd]2 d | z2 A [Ac]2 [Fc] | [EB]2 [EA] [EB]2 [Ec] | [FA]3- [FA]2 | c z2 [Fd]2 d x | %15
w: |||||
w: on! on!) Trust|on! on!) Tho’|* dark the night|and *|drear; on! (trust|
w: |||||
w: |||||
 z2 [Ac]2 [CA] x | [DG]2 [GB] [FA]2 [EG] | F3- F2 |] %18
w: |||
w: Trust on!|* (trust on!) The|morn- *|
w: |||
w: |||
V:2
 x | x6 | x6 | F2 x4 | x6 | x6 | x5 F | x6 | F3- F2 || x | d3- x3 | c3- x3 | x6 | x5 | %14
 x (d3- F) x2 | (c3 A) x2 | x6 | F3- F2 |] %18
V:3
 [F,A,] | [F,A,]2 [F,C] [F,D]2 [F,B,] | [F,A,]3 [F,C]2 [C,B,] | [F,A,]2 [G,B,] [A,C]2 [F,C] | %4
 [C,C]3- [C,C]2 [C,B,] | [F,A,]2 [F,C_E] [F,D]2 [F,B,] | [F,A,]3 [F,C]2 [A,,C] | %7
 [B,,B,]2 [G,,D] [C,C]2 [C,B,] | [F,A,]3- [F,A,]2 || C | z2 [B,D]2 D x | z2 [F,C]2 [F,A,] x | %12
 [C,G,]2 [C,^F,] [C,G,]2 [C,C] | [F,C]3- [F,C]2 | C z2 B, [B,D]2 D | z2 F, [F,C]2 [F,C] | %16
 [B,,B,]2 [G,,D] [C,C]2 [C,B,] | [F,A,]3- [F,A,]2 |] %18
V:4
 x | x6 | x6 | x6 | x6 | x6 | x6 | x6 | x5 || x | (D3- B,) x2 | (C3- F,) x2 | x6 | x5 | x D3- x3 | %15
 C3- x3 | x6 | x5 |] %18

